X:1
T:A minor                      Amos Pilsbury, 1799
T:Joseph Hart, 1759. Amended by Richard Coke and Francis Asbury, 1790               87. 87. 87.
T:Kingston
T:Transcribed from The Missouri Harmony, 1820.
%%score [ 1 2 3 4 ]
L:1/8
Q:1/4=90
M:2/4
K:C
V:1 treble nm="Tr." snm="Tr."
V:2 treble nm="C." snm="C."
V:3 treble-8 nm="T." snm="T."
V:4 bass nm="B." snm="B."
V:1
"^A–go–ni–zing  in the  gar –den, Lo! your Ma–ker  pro–strate lies!\nOn  the bloody tree behold him!  Hear  him  cry be – fore  he   dies,""^1. {" c2 B2 | %1
 e2 d2 | c2 B2 | c>d e2 | e2 B2 | c2 d2 | c2 BA |"^}" B4 :: %8
"^\"It    is   fi – nished!    It    is     fi–nished!\"  Sin – ners, will not this suf–fice?" c>B A2 | %9
 d>c B2 | cd ec | B>A G2 | A2 e2 | c3 B | A2 ^G2 |1 A4 :|2 A4- | A4 |] %18
V:2
"^Lo! th'in–car–nate God ascending, Pleads  the  merit  of  his  blood;\nVenture on  him,  venture  freely,  Let  no  o– ther  trust  in –trude;""^2. {" E2 E2 | %1
 E2 G2 | A2 FD | E2 E2 | E2 ^G2 | A2 GF | EG GA |"^}" G4 :: %8
"^None but  Je  –  sus,  None  but  Je   –  sus,  Can  do   helpless sinners good." G2 E2 | G2 G2 | %10
 A2 A2 | G2 D2 | E2 G2 | A3 F | E2 E2 |1 E4 :|2 E4- | E4 |] %18
V:3
"^Saints and angels joined in concert, Sing the praises of the Lamb,\nWhile  the  blissful seats of heaven, Sweet–ly echo with his name;""^3. {" A2 ^G2 | %1
 A2 B2 | e2 d2 | c>B A2 | A2 ^G2 | A2 B2 | e2 df |"^}" e4 :: %8
"^Hal –  le – lu – jah!   Hal – le  –  lu – jah!   Sinners  here  may do the same." e>d c2 | %9
 de/f/ e2 | c>B A2 | B>c d2 | c2 de/f/ | e3 d | c2 B2 |1 A4 :|2 A4- | A4 |] %18
V:4
"^__________________________________________\nA folk hymn. See David Music (1995) for a discussion of\nthe history of this tune." A,2 E,2 | %1
 C,2 G,2 | A,2 D,2 | E,2 E,2 | C,2 E,2 | A,,2 D,2 | C,2 A,,2 | E,4 :: E,2 C,2 | G,2 A,2 | %10
 F,>E, D,2 | G,2 G,2 | C,2 E,2 | A,3 D, | E,2 E,2 |1 A,,4 :|2 A,,4- | A,,4 |] %18

